X:1
T:Heralds of Jesus
T:Heralds of Jesus
T:William Henry Pontius (1857–1937)
T:Jeremiah Eames Rankin, 1888
T:Public Domain Courtesy of the Cyber Hymnal™
T:Public Domain Courtesy of the Cyber Hymnal™
C:William Henry Pontius (1857–1937)
Z:Public Domain
Z:Courtesy of the Cyber Hymnal™
%%score 1 ( 2 3 )
L:1/8
Q:1/4=100
M:4/4
K:Ab
V:1 treble 
V:2 bass 
V:3 bass 
V:1
 [EA]2 | [Ac]3 [EB] [EA]2 [EA]2 | [FB][FA][EG][DF] [DF]2 [CE][CE] | [A,C]2 [CE]2 [CA]3 [EA] | %4
w: 1.~All|round the earth, what|wea- ry hearts are ach- ing, And|heav’n- ward go what|
w: 2.~Lo!|ships are plough- ing|far, on ev- ery o- cean, And|sails of traf- fic|
w: 3.~Star|of earth’s night, great|Her- ald of the morn- ing, We|see Thy sign glow|
w: 4.~Lift|Thou the sha- dows|fill- ing thick a- round us, Lord,|show Thy- self, and|
 [=Dc][DB][DA][Dc] [EB]3 [G_d] | [Ac]3 [EB] [EA]2 [EA]2 | [FB][FA][EG][DF] [DF]2 [CE]2 | %7
w: clouds of se- cret sighs; What|lone- ly, la- den|ones from sin are wak- ing,|
w: filled by ev- ery breeze; When|will God’s peo- ple,|clothed with like de- vo- tion,|
w: in th’ho- ri- zon there; Fresh|cour- age take, all|pains and per- ils scorn- ing,|
w: lead Thy peo- ple on! Break|Thou the fet- ters|that in sin have bound us,|
 [DF]2 [DF]>[EG] [EA]3 [FB] | [Ec][EB][EA][EG] [EA]4 ||"^Refrain" [FA]2 [FA]>[FA] [DF] [Fd]3 | %10
w: Turn- ing to God, their|ea- ger, hun- gry eyes.||
w: Send Gos- pel balm to|bring the bur- dened ease?|Her- alds of Je- sus,|
w: And bring our gifts to|Thee, with praise and prayer.||
w: And sin and sor- row|shall from earth be gone.||
 [Ec]2 [Ec]>[Ed] [Ae]4 | [Ae]2 [Ae]>[Ac] [GB]2 [A=d]2 | [Ge]6 z2 | [Ae]2 [Ac]>[EB] [EA]2 [Ec]2 | %14
w: ||||
w: her- alds of light,|Go where the lost are|found;|Bind up each bleed- ing|
w: ||||
w: ||||
 [Fd]6 z2 | [DF]2 [DF]>[DF] [CE][EA] !fermata![Ac]2 | [Ae]2 [Ac]>[EB] !fermata![EA]4 |] %17
w: |||
w: wound,|Go where the dark- ness is,|Drive back the night.|
w: |||
w: |||
V:2
 [A,C]2 | [A,E]3 [A,D] [A,C]2 [C,A,]2 | [D,A,][D,A,][D,A,][D,A,] [A,,A,]2 [A,,A,][A,,A,] | %3
 [A,,E,]2 [A,,A,]2 [A,,A,]3 [A,C] | [F,B,][F,B,][B,,B,][B,,A,] [E,G,]3 [E,E] | %5
 [A,E]3 [A,D] [A,C]2 [C,A,]2 | [D,A,][D,A,][D,A,][D,A,] [A,,A,]2 [A,,A,]2 | %7
 [D,A,]2 [D,A,]>[D,B,] [C,A,]3 [D,A,] | [E,A,][E,D][E,C][E,B,] [A,,C]4 || %9
 [D,D]2 [D,D]>[D,D] [D,A,] [D,A,]3 | A,2 A,>[A,B,] [A,C]4 | [A,C]2 [A,C]>[A,E] [B,E]2 [B,F]2 | %12
 [E,E]6 z2 | [A,C]2 [A,E]>[A,D] [A,C]2 A,2 | [D,A,]6 z2 | %15
 [D,A,]2 [D,A,]>[D,A,] [E,A,][E,C] [E,E]2 | [E,C]2 [E,E]>[E,D] !fermata![A,,C]4 |] %17
V:3
 x2 | x8 | x8 | x8 | x8 | x8 | x8 | x8 | x8 || x8 | A,2 A,3/2 x9/2 | x8 | x8 | x6 A,2 | x8 | x8 | %16
 x8 |] %17

